X:1
T:24 Italian Songs and Arias
T:Già il sole dal Gange
T:Alessandro Scarlatti (1659-1725) Alessandro Parisotti (1853-1913)
T:Canzonetta
T:Già il sole dal Gange
T:OpenScore (CC0)
T:OpenScore (CC0)
T:OpenScore (CC0)
T:OpenScore (CC0)
T:OpenScore (CC0)
T:OpenScore (CC0)
T:OpenScore (CC0)
T:OpenScore (CC0)
T:OpenScore (CC0)
C:Alessandro Scarlatti
Z:OpenScore (CC0)
%%score ( 1 2 ) { ( 3 5 6 ) | ( 4 7 ) }
L:1/8
Q:1/4=128
M:3/4
K:Eb
V:1 treble nm="Voice"
V:2 treble 
V:3 treble nm="Piano"
V:5 treble 
V:6 treble 
V:4 bass 
V:7 bass 
V:1
"^Allegro giusto" z2 | z6 | z6 | z6 | z6 | z6 | z6 | z2 z2!mf! B,2 | (ED) (EF) (GA) | B2 E2 B2 | %10
w: |||||||Già\_il|so- * le _ dal _|Gan- ge, già\_il|
 c2 !>!B3 A | .G2 .E2 .F2 | G2 F2 D2 | G2 !>!F3 E | F2 B,2 B2 | c2 B3 A | (G3 A) G A | B2 !>!A3 G | %18
w: so- le dal|Gan- ge più|chia- ro, più|chia- ro sfa-|vil- la, più|chia- ro sfa-|vil- * la, più|chia- ro, più|
 F2 E2 F2[Q:1/4=124]"^poco rit."[Q:1/4=122][Q:1/4=118] | (G2 !>!F4)[Q:1/4=116] | %20
w: chia- ro sfa-|vil- *|
[Q:1/4=128]"^a tempo" E6 | z2 z2 (F2 | G2 !>!F3 E | D2 D2 E2 | F2 (G)F) (ED) | C2 B,2 z2 | %26
w: la,|e|ter- ge\_o- gni|stil- la del-|l'al- ba _ che _|pian- ge,|
 z2 z2 E2 |"^cresc." E2"^poco a poco e legatiss." D2 C2 | D2 C2 D2 |!<(! E2 D2 C2 | D2 C2!<)! D2 | %31
w: del-|l'al- ba che|pian- ge, del-|l'al- ba che|pian- ge, del-|
!<(! E2 D2 C2!<)! |!f! (D2 C4)[Q:1/4=117][Q:1/4=108] |[Q:1/4=128]"^a tempo" B,6- | B,6 | %35
w: l'al- ba che|pian- *|ge.|_|
 z2 z2 B,2 | (E!mp!D) (EF) (GA) | B2 E2 B2 | c2 B3 A | G2 E2 F2 | G2 F2 D2 | G2 !>!F3 E | %42
w: Già\_il|so- * le _ dal *|Gan- ge, già\_il|so- le dal|Gan- ge più|chia- ro, più|chia- ro sfa-|
 F2 B,2 B2 | c2 B3 A | (G3 A) G A | B2 !>!A3 G |"^rit." !>!F2 !>!E2 !>!F2[Q:1/4=124][Q:1/4=118] | %47
w: vi- la, più|chia- ro sfa-|vi- * la, più|chia- ro, più|chia- ro sfa-|
 (G2 !>!TF4)[Q:1/4=114][Q:1/4=108] |[Q:1/4=128]"_a tempo" E6 | z6 | z6 | z6 | z6 | z6 | %54
w: vil- *|la.~||||||
 z2 z2!mf! B,2 | (ED) (EF) (GA) | .B2 .E2 .B2 | c2 !>!B3 A | .G2 .E2 .F2 | (G2 !>!F2) D2 | %60
w: Col~|rag- * gio _ do- *|ra- to, col|rag- gio do-|ra- to in-|gem- ma, in-|
 G2 F3 E | F2 B,2 B2 | c2 !>!B3 A | (G3 A) G A | (B2 !>!A3) G | %65
w: gem- ma\_o- gni|ste- lo, in-|gem- ma\_o- gni|ste- * lo, in-|ge- ma, in-|
[Q:1/4=126]"^poco  rit." F2 E2 F2[Q:1/4=124] | (!>!G2 F4)[Q:1/4=118][Q:1/4=116] | %67
w: gem- ma\_o- gni|ste- *|
[Q:1/4=128]"^a tempo" E6 | z2 z2 (F2 | G2 !>!F3 E | D2 D2 E2 | F2 (GF) (ED)) | C2 B,2 z2 | %73
w: lo,|e~|gli\_as- tri del|cie- lo di-|pin- ge _ nel _|pra- to;|
 z2 z2!pp! E2 |"^cresc." E2"^poco  a" D2 C2 |"^poco" D2 C2 D2 | E2 D2 C2 |!<(! D2 C2 D2!<)! | %78
w: di-|pin- ge nel|pra- to, di-|pin- ge nel|pra- to, di-|
 E2 D2 C2 |[Q:1/4=126]!f! (D2 C4)[Q:1/4=116][Q:1/4=108] |[Q:1/4=128]"^a tempo" B,6- | B,6 | %82
w: pin- ge nel|pra- *|to.|_|
 z2 z2 B,2 | (ED) (EF) (GA) | .B2 .E2 .B2 | c2 !>!B3 A | G2 E2 F2 | (G2 F2) D2 | G2 !>!F3 E | %89
w: Col|rag- * gio _ do- *|ra- to col|rag- gio do-|ra- to in-|gem- ma, in-|gem- ma\_o- gni|
 F2 B,2 B2 | c2 B3 A | (G3 A) G A | B2 !>!A3 G | %93
w: ste- lo, in-|gem- ma\_o- gni|ste- * lo, in-|gem- ma, in-|
[Q:1/4=126]"^poco  rit." !>!F2 !>!E2 !>!F2[Q:1/4=120][Q:1/4=115] | (G2 !>!TF4)[Q:1/4=108] | %95
w: gem- ma\_o- gni|ste- *|
[Q:1/4=128]"_a tempo" E2 z4 | z6 | z6 | z6 | z6 | %100
w: lo.|||||
[Q:1/4=126] z6[Q:1/4=120][Q:1/4=114][Q:1/4=106][Q:1/4=120]"_a tempo" | z6 | !fermata!z6 |] %103
w: |||
V:2
 x2 | x6 | x6 | x6 | x6 | x6 | x6 | x6 | x6 | x6 | x6 | x6 | x6 | x6 | x6 | x6 | x6 | x6 | x6 | %19
 x6 | x6 | x6 | x6 | x6 | x6 | x6 | x6 | x6 | x6 | x6 | x6 | x6 | x6 | x6 | x6 | x6 | x6 | x6 | %38
 x6 | x6 | x6 | x6 | x6 | x6 | x6 | x6 | x6 | x5 E/F/ | x6 | x6 | x6 | x6 | x6 | x6 | x6 | x6 | %56
 x6 | x6 | x6 | x6 | x6 | x6 | x6 | x6 | x6 | x6 | x6 | x6 | x6 | x6 | x6 | x6 | x6 | x6 | x6 | %75
 x6 | x6 | x6 | x6 | x6 | x6 | x6 | x6 | x6 | x6 | x6 | x6 | x6 | x6 | x6 | x6 | x6 | x6 | x6 | %94
 x5 E/F/ | x6 | x6 | x6 | x6 | x6 | x6 | x6 | x6 |] %103
V:3
!mf! z2 | z2 z2 B,2 | (!>!EDEFGA) | .B2 .E2 .B2 | (c2 !>!B3 A) | (([EG]2 [CA]2)) .[CF]2 | (!>!TF6 | %7
 [G,E]4) [F,B,]2 | (.[G,CE]2 .[G,CE]2 .[G,CE]2) | (.[G,B,E]2 .[G,B,E]2 .[G,B,E]2) | %10
 (.[F,A,CE]2 .[F,A,B,E]2 .[F,A,B,D]2) | (.[G,B,E]2 .[G,B,E]2 .[B,F]2) | .[B,G]2 .[B,F]2 .[B,D]2 | %13
 G2 (!>!F3 E) | (.[B,D]2 .[B,D]2 .[B,EB]2) | [EAc]2 [DFB]2 [DFA]2 | (.[EG]2 .[CEG]2 .[CEG]2) | %17
 (.[B,EB]2 .[CEA]2 .[CEG]2) | (.[A,DF]2 .[G,CE]2 .[F,CF]2) | (.[B,EG]2 .[B,EF]2 .[B,DA]2) | %20
 (!>!G3 F E2) | ((!>![F,B,D]2 [E,G,C]2)) .[F,B,F]2 | (G2 F2 E2 | [B,D]2) [G,B,D]2 [G,B,E]2 | %24
 F2 (GF) (ED) |[I:staff +1] ([E,=A,C]2 [D,G,B,]2) .[D,G,B,]2 | .[E,G,C]2!pp! (.[G,CE]2 .[G,CE]2) | %27
"_cresc." [G,CE]2 [F,B,D]2 [G,B,C]2 | (.[F,B,D]2 .[F,=A,C]2 .[F,B,D]2) | %29
!<(! (.[E,B,E]2 .[F,B,D]2 .[G,B,C]2) | (.[F,B,D]2 .[F,=A,C]2!<)! .[F,B,D]2) | %31
!<(! (.[E,B,E]2 .[F,B,D]2 .[G,B,C]2)!<)! |!f! [F,B,D]2 [E,B,C]2 [E,=A,C]2 | %33
 [D,F,B,]2[I:staff -1] (!>!B2 [DF_A]2) | (!>!G3 F E2) | ((!>![F,B,D]2 [G,B,E]2)) .[F,B,]2 | %36
 (.[G,CE]2 .[G,CE]2 .[G,CE]2) | [G,B,E]2 [G,B,E]2 [G,B,E]2 | [F,A,CE]2 [F,A,B,D]2 [F,A,B,D]2 | %39
 [G,B,E]2 [G,B,E]2 [B,F]2 | ([B,G]2 [B,F]2 [B,D]2) | (G2 !>!F3 E) | .[B,D]2 .[B,D]2 !>![B,EB]2 | %43
 (.[EAc]2 .[DFB]2 .[DFA]2) | (.[EG]2 .[CEG]2 .[CEG]2) | (.[B,EB]2 .[CEA]2 .[CEG]2) | %46
 (.[A,DF]2 .[G,CE]2 .[F,CF]2) | [B,EG]2 !>![B,EF]2 !>![A,DF]2 | [G,B,E]2 z2 !>!B,2 | (!>!EDEFGA) | %50
 B2 E2 B2 | c2 B3 A | (([EG]2 [CA]2)) [CF]2 | (TF6 | [G,E]4) [F,B,]2 | %55
 (.[G,CE]2 .[G,CE]2 .[G,CE]2) | (.[G,B,E]2 .[G,B,E]2 .[G,B,E]2) | %57
 (.[F,A,CE]2 .[F,A,B,E]2 .[F,A,B,D]2) | (.[G,B,E]2 .[G,B,E]2 .[B,F]2) | .[B,G]2 .[B,F]2 .[B,D]2 | %60
 (G2 !>!F3 E) | (.[B,D]2 .[B,D]2 .[B,EB]2) | (.[EAc]2 .[DFB]2 .[DFA]2) | (.[EG]2 .[CEG]2 .[CEG]2) | %64
 (.[B,EB]2 .[CEA]2 .[CEG]2) | (.[A,DF]2 .[G,CE]2 .[F,CF]2) | .[B,EG]2 .[B,EF]2 .[B,DA]2 | %67
 (!>!G3 F E2) | ([F,B,D]2 [E,G,C]2) .[F,B,F]2 | G2 F2 E2 | (.[B,D]2 .[G,B,D]2 .[G,B,E]2) | %71
 F2 (GF) (ED) |[I:staff +1] [E,=A,C]2 [D,G,B,]2 [D,G,B,]2 | [E,G,C]2 [G,CE]2!pp! [G,CE]2 | %74
"_cresc." [G,CE]2"^poco  a" [F,B,D]2 [G,B,C]2 |"^poco" (.[F,B,D]2 .[F,=A,C]2 .[F,B,D]2) | %76
 (.[E,B,E]2 .[F,B,D]2 .[G,B,C]2) |!<(! (.[F,B,D]2 .[F,=A,C]2 .[F,B,D]2)!<)! | %78
 (.[E,B,E]2 .[F,B,D]2 .[G,B,C]2) | (.[F,B,D]2!f! .[E,B,C]2 .[E,=A,C]2) | %80
 [D,F,B,]2[I:staff -1] (B2 !>![B,D_A]2) | (G3 F E2) | ((!>![F,B,D]2 [G,B,E]2)) [F,B,]2 | %83
 [G,CE]2 [G,CE]2 [G,CE]2 | (.[G,B,E]2 .[G,B,E]2 .[G,B,E]2) | (.[F,A,CE]2 .[F,A,B,D]2 .[F,A,B,D]2) | %86
 ((.[G,B,E]2 .[G,B,E]2)) .[B,F]2 | (.[B,G]2 .[B,F]2 .[B,D]2) | (G2 !>!F3 E) | %89
 [B,D]2 [B,D]2 [B,EB]2 | [EAc]2 [DFB]2 [DFA]2 | [EG]2 [CEG]2 [CEG]2 | [B,EB]2 [CEA]2 [CEG]2 | %93
 !>![A,DF]2 !>![G,CE]2 !>![F,CF]2 | !>![B,EG]2 !>![B,EF]2 !>![A,DF]2 | [G,B,E]2 z2 !>!B,2 | %96
 (!>!EDEFGA) | .B2 .E2 .B2 | c2 !>!B3 A | ([EG]2 [CA]2) [CF]2 | !>!TF6 | %101
 [G,E]2 !>![G,B,E]2 !>![G,B,E]2 | !fermata![G,B,E]6 |] %103
V:4
 .B,,2 | (!>!E,D,E,F,G,A,) | (!>!G,F,G,D,E,F,) | G,3 (F,G,E,) | (A,2 G,2 F,2) | E,4- [A,,E,]2 | %6
 B,,6 | [E,,E,]2 (E,2 D,2 |"^leggero" C,2 B,,2 A,,2 | G,,3) (F,,G,,E,,) | (A,,2 B,,2) .B,,,2 | %11
 .E,,2 (E,2 D,2 | E,2 D,2 B,,2) | (E,2 D,2 C,2 | !>!B,,3 _A,, G,,2) | (A,,2 B,,2) .B,,2 | %16
 (C,2 !>!B,,3 A,, | G,,2 A,,2 A,,,2) |"^poco rit." (B,,,2 C,,2 A,,2) | B,,4 !>!B,,,2 | %20
"^a tempo" (E,,D,,E,,F,,G,,A,,) | (B,,2 C,2 D,2) | (E,2 !>!D,2 F,,2 | G,,2) (!>!F,,3 E,,) | %24
 (D,,2 E,,4) | F,,2 (G,,F,,E,,D,,) | .C,,2 (C,D,C,B,,) | %27
 (=A,,2"^poco a poco e legatiss." B,,2 E,,2) | F,,4 F,,2 | (G,,2 F,,2 E,,2 | F,,4) !>!F,,2 | %31
 (G,,2 F,,2 E,,2 | F,,4) !>!F,,2 |"^a tempo" [B,,,B,,]4 !>!B,,,2 | %34
!mf! (E,,!<(!D,,E,,F,,G,,A,,)!<)! | (!>!B,,2 E,,2) (D,2 | C,2!mp! B,,2 A,,2 | G,,3) (F,,G,,E,,) | %38
 (A,,2 B,,2) !>!B,,,2 | .E,,2 (E,2 D,2 | E,2 D,2 B,,2) | (E,2 D,2 C,2) | (!>!B,,3 _A,, G,,2) | %43
 (A,,2 B,,2) .B,,2 | (C,2 B,,3 A,,) | (G,,2 A,,2) A,,,2 |"^rit." B,,,2 C,,2 !>!A,,2 | %47
 B,,4 !>!B,,,2 |!f!{/E,,} (E,D,E,F,G,A,) | (G,F,G,D,E,F,) | G,3 (F, G,E,) | A,2 G,2 F,2 | %52
 E,4- [A,,E,]2 | B,,6 | [E,,E,]2 (E,2 D,2 | C,2 B,,2 A,,2 | G,,3) (F,,G,,E,,) | %57
 (A,,2 B,,2) .B,,,2 | .E,,2 (E,2 D,2 | E,2 D,2 B,,2) | (E,2 D,2 C,2) | (!>!B,,3 _A,, G,,2) | %62
 A,,2 B,,2 .B,,2 | (C,2 !>!B,,3 A,, | G,,2 A,,2) (A,,,2 |"^poco  rit." B,,,2 C,,2 A,,2) | %66
 B,,4 !>!B,,,2 |"^a tempo" (E,,D,,E,,F,,G,,A,,) | (B,,2 C,2 D,2) | (E,2 D,2 F,,2) | %70
 (G,,2 F,,3 E,,) | (D,,2 E,,4) | F,,2 (G,,F,,E,,D,, | C,,2) (C,D,C,B,,) | (=A,,2 B,,2) E,,2 | %75
 F,,4 !>!F,,2 | (G,,2 F,,2 E,,2 | F,,4) !>!F,,2 | (G,,2 F,,2 E,,2 | F,,4) !>!F,,2 | B,,4 !>!B,,,2 | %81
 (E,,D,,E,,F,,G,,A,,) | (!>!B,,2 E,,2) D,2 | (C,2 B,,2 A,,2 | !>!G,,3) (F,,G,,E,,) | %85
 (A,,2 B,,2) .B,,,2 | .E,,2 (E,2 D,2 | E,2 D,2 B,,2) | (E,2 D,2 C,2 | !>!B,,3 _A,, G,,2) | %90
 (A,,2 B,,2) .B,,2 | C,2 !>!B,,3 A,, | G,,2 A,,2 A,,,2 |"^poco  rit." B,,,2 C,,2 A,,2 | %94
 B,,4 !>!B,,,2 |!f!{/E,,} (!>!E,D,E,F,G,A,) |"^brillante" (G,F,G,D,E,F,) | (G,3 F,G,E,) | %98
 (A,2 G,2 F,2) | E,4- [A,,E,]2 |"^rit." B,,4 B,,,2 | [E,,E,]2 !>![G,,,G,,]2 !>![B,,,B,,]2 | %102
 !fermata![E,,,E,,]6 |] %103
V:5
 x2 | x6 | x6 | x6 | E4 D2 | x6 | (B,4 A,2) | x6 | x6 | x6 | x6 | x6 | x6 | B,2 (B,2 =A,2) | x6 | %15
 x6 | x6 | x6 | x6 | x6 | [B,E]4 [G,B,]2 | x6 | B,2 B,3 =A, | x6 | B,2 B,2 [G,B,]2 | x6 | x6 | x6 | %28
 x6 | x6 | x6 | x6 | x6 | x6 | [B,E]4 [G,B,]2 | x6 | x6 | x6 | x6 | x6 | x6 | B,2 B,2 =A,2 | x6 | %43
 x6 | x6 | x6 | x6 | x6 | x6 | x6 | x6 | (!>!E4 D2) | x6 | (B,4 A,2) | x6 | x6 | x6 | x6 | x6 | %59
 x6 | B,2 B,2 =A,2 | x6 | x6 | x6 | x6 | x6 | x6 | [B,E]4 [G,B,]2 | x6 | B,2 !>!B,3 =A, | x6 | %71
 B,2 B,2 [G,B,]2 | x6 | x6 | x6 | x6 | x6 | x6 | x6 | x6 | x6 | [B,E]4 [G,B,]2 | x6 | x6 | x6 | %85
 x6 | x6 | x6 | (.B,2 .B,2 .=A,2) | x6 | x6 | x6 | x6 | x6 | x6 | x6 | x6 | x6 | E4 D2 | x6 | %100
 (B,4 A,2) | x6 | x6 |] %103
V:6
 x2 | x6 | x6 | x6 | x6 | x6 | x5 E/F/ | x6 | x6 | x6 | x6 | x6 | x6 | x6 | x6 | x6 | x6 | x6 | %18
 x6 | x6 | x6 | x6 | x6 | x6 | x6 | x6 | x6 | x6 | x6 | x6 | x6 | x6 | x6 | x6 | x6 | x6 | x6 | %37
 x6 | x6 | x6 | x6 | x6 | x6 | x6 | x6 | x6 | x6 | x6 | x6 | x6 | x6 | x6 | x6 | x5 E/F/ | x6 | %55
 x6 | x6 | x6 | x6 | x6 | x6 | x6 | x6 | x6 | x6 | x6 | x6 | x6 | x6 | x6 | x6 | x6 | x6 | x6 | %74
 x6 | x6 | x6 | x6 | x6 | x6 | x6 | x6 | x6 | x6 | x6 | x6 | x6 | x6 | x6 | x6 | x6 | x6 | x6 | %93
 x6 | x6 | x6 | x6 | x6 | x6 | x6 | x5 E/F/ | x6 | x6 |] %103
V:7
 x2 | x6 | x6 | x6 | x6 | x6 | E,2 !>!D,4 | x6 | x6 | x6 | x6 | x6 | x6 | x6 | x6 | x6 | x6 | x6 | %18
 x6 | x6 | x6 | x6 | x6 | x6 | x6 | x6 | x6 | x6 | x6 | x6 | x6 | x6 | x6 | x6 | x6 | x6 | x6 | %37
 x6 | x6 | x6 | x6 | x6 | x6 | x6 | x6 | x6 | x6 | x6 | x6 | x6 | x6 | x6 | x6 | E,2 !>!D,4 | x6 | %55
 x6 | x6 | x6 | x6 | x6 | x6 | x6 | x6 | x6 | x6 | x6 | x6 | x6 | x6 | x6 | x6 | x6 | x6 | x6 | %74
 x6 | x6 | x6 | x6 | x6 | x6 | x6 | x6 | x6 | x6 | x6 | x6 | x6 | x6 | x6 | x6 | x6 | x6 | x6 | %93
 x6 | x6 | x6 | x6 | x6 | x6 | x6 | E,2 !>!D,4 | x6 | x6 |] %103

